X:46
T:T029B- The Short Apron
S:Bremner's Reels, p. 9, (1757)
Q:1/4=120
L:1/8
M:6/8
K:Dm
f|cAA fAA|aAA cGG|cAA fAA|aAc d2f|\
BAA fAA|aAA cGG|AGF fga|gecd2::c|\
Acd cAF|)A/B/cA cBc|(AB/c/d) cAF|\
f3/2g/f/e/)d2c|Acd cAF|(A/B/c)A cGc|\
AGF f3/2g/a|ge^cd2:|]

